X:28
T:Kerry Reel, The
R:reel
Z:Transcribed by Dave Marshall
M:C|
K:Edor
BE~E2 BAFB|ABde fded|BE~E2 BAFA|BFAF EFGA|
~B3d BAFB|ABde fded|BE~E2 BAFA|BFAF E2FA:|
|:Bdef g2fe|d~B3 dBAd|Bdef g2fe|dBAF E4|
~g3a gfeg|~f3g fedB|ABde fdec|dBAF E2FA:|
